assets/illustrations/multisize/40/html.svg

<svg id="d0bbf5f9-d415-47e4-ad09-78f6eec84556" data-name="ICONS" xmlns="http://www.w3.org/2000/svg" xmlns:xlink="http://www.w3.org/1999/xlink" viewBox="0 0 40 40"><defs><linearGradient id="8ab2e06c-01db-435e-9baf-d0e85468515a" x1="3.38265" y1="4.19622" x2="32.67812" y2="39.10919" gradientUnits="userSpaceOnUse"><stop offset="0" stop-color="#fff" stop-opacity="0"/><stop offset="0.86247" stop-color="#5e5e5e" stop-opacity="0.06315"/><stop offset="1" stop-opacity="0.1"/></linearGradient><linearGradient id="cd756fd3-50ef-4e28-b1c3-2c6fa79ad9fd" x1="29" y1="13.90625" x2="29" y2="11.08751" gradientUnits="userSpaceOnUse"><stop offset="0" stop-color="#828282" stop-opacity="0"/><stop offset="0.86247" stop-color="#303030" stop-opacity="0.06315"/><stop offset="1" stop-opacity="0.1"/></linearGradient><linearGradient id="fe567031-cf80-4d02-a453-0eea45f30bf6" x1="23.79167" y1="9.70833" x2="28.72991" y2="4.77009" gradientUnits="userSpaceOnUse"><stop offset="0" stop-color="#fff" stop-opacity="0"/><stop offset="0.44604" stop-color="#fff" stop-opacity="0.00799"/><stop offset="0.63551" stop-color="#fff" stop-opacity="0.03616"/><stop offset="0.77636" stop-color="#fff" stop-opacity="0.08493"/><stop offset="0.8924" stop-color="#fff" stop-opacity="0.15385"/><stop offset="0.99328" stop-color="#fff" stop-opacity="0.24291"/><stop offset="1" stop-color="#fff" stop-opacity="0.25"/></linearGradient></defs><title>FileTypeIcons_Master_All_NEW</title><polygon points="7 3 26 3 33 10 33 37 7 37 7 3" fill="#fff"/><path d="M26,2H6V38H34V10Zm0,1.5L32.5,10H26ZM33,37H7V3H25v8h8Z" fill="#949494"/><rect x="10" y="32" width="20" height="1" fill="#c8c8c8"/><rect x="10" y="29" width="20" height="1" fill="#c8c8c8"/><path d="M20,11a8,8,0,1,0,8,8A7.99985,7.99985,0,0,0,20,11Zm5.73633,4H23.46045a8.40237,8.40237,0,0,0-1.21826-2.625A7.02492,7.02492,0,0,1,25.73633,15ZM23,19a13.92282,13.92282,0,0,1-.31934,3H17.31934a14.25123,14.25123,0,0,1,0-6h5.36132A13.92282,13.92282,0,0,1,23,19Zm-3,7c-.88086,0-1.82666-1.15967-2.41553-3h4.83106C21.82666,24.84033,20.88086,26,20,26ZM17.58447,15c.58887-1.84033,1.53467-3,2.41553-3s1.82666,1.15967,2.41553,3Zm.17334-2.625A8.40237,8.40237,0,0,0,16.53955,15H14.26367A7.02492,7.02492,0,0,1,17.75781,12.375ZM13.68506,16h2.6084a15.481,15.481,0,0,0,0,6h-2.6084a6.9113,6.9113,0,0,1,0-6Zm.57861,7h2.27588a8.40237,8.40237,0,0,0,1.21826,2.625A7.02492,7.02492,0,0,1,14.26367,23Zm7.97852,2.625A8.40237,8.40237,0,0,0,23.46045,23h2.27588A7.02492,7.02492,0,0,1,22.24219,25.625ZM26.31494,22h-2.6084a15.481,15.481,0,0,0,0-6h2.6084a6.9113,6.9113,0,0,1,0,6Z" fill="#69afe5"/><path d="M34,10,26,2H6V38H34Z" fill="url(#8ab2e06c-01db-435e-9baf-d0e85468515a)"/><rect x="25" y="11" width="8" height="3" fill="url(#cd756fd3-50ef-4e28-b1c3-2c6fa79ad9fd)"/><polygon points="26 2 6 2 6 3 25 3 25 11 33 11 33 25 34 25 34 10 26 2" fill="url(#fe567031-cf80-4d02-a453-0eea45f30bf6)"/></svg>

<?xml version="1.0" encoding="utf-8"?>
<!-- Generator: Adobe Illustrator 21.1.0, SVG Export Plug-In . SVG Version: 6.00 Build 0)  -->
<svg version="1.1" xmlns="http://www.w3.org/2000/svg" xmlns:xlink="http://www.w3.org/1999/xlink" x="0px" y="0px"
	 viewBox="0 0 40 40" enable-background="new 0 0 40 40" xml:space="preserve">
<g id="TEMPLATE" display="none">
	<g display="inline">
		<path fill="#D0D0D0" d="M40,0v40H0V0H40 M41-1h-1H0h-1v1v40v1h1h40h1v-1V0V-1L41-1z"/>
	</g>
	<g display="inline" opacity="0.1">
		<path fill="#FF3A6D" d="M38,2v36H2V2H38 M40,0H0v40h40V0L40,0z"/>
	</g>
</g>
<g id="ICONS">
	<g>
		<polygon fill="#FFFFFF" points="7,3 26,3 33,10 33,37 7,37 		"/>
		<path fill="#949494" d="M26,2H6v36h28V10L26,2z M26,3.5l6.5,6.5H26V3.5z M33,37H7V3h18v8h8V37z"/>
	</g>
	<rect x="10" y="32" fill="#C8C8C8" width="20" height="1"/>
	<rect x="10" y="29" fill="#C8C8C8" width="20" height="1"/>
	<g>
		<path fill="#69AFE5" d="M20,11c-4.4185,0-8,3.5817-8,8s3.5815,8,8,8s8-3.5817,8-8S24.4185,11,20,11z M25.7363,15h-2.2759
			c-0.3032-1.0471-0.7192-1.9478-1.2183-2.625C23.6685,12.8591,24.8887,13.7882,25.7363,15z M23,19c0,1.0896-0.1201,2.1001-0.3193,3
			h-5.3613C17.1201,21.1001,17,20.0896,17,19s0.1201-2.1001,0.3193-3h5.3613C22.8799,16.8999,23,17.9104,23,19z M20,26
			c-0.8809,0-1.8267-1.1597-2.4155-3h4.8311C21.8267,24.8403,20.8809,26,20,26z M17.5845,15c0.5889-1.8403,1.5347-3,2.4155-3
			s1.8267,1.1597,2.4155,3H17.5845z M17.7578,12.375c-0.499,0.6772-0.915,1.5779-1.2183,2.625h-2.2759
			C15.1113,13.7882,16.3315,12.8591,17.7578,12.375z M13.6851,16h2.6084C16.1055,16.927,16,17.9382,16,19s0.1055,2.073,0.2935,3
			h-2.6084C13.2505,21.0892,13,20.0745,13,19S13.2505,16.9108,13.6851,16z M14.2637,23h2.2759
			c0.3032,1.0471,0.7192,1.9478,1.2183,2.625C16.3315,25.1409,15.1113,24.2118,14.2637,23z M22.2422,25.625
			c0.499-0.6772,0.915-1.5779,1.2183-2.625h2.2759C24.8887,24.2118,23.6685,25.1409,22.2422,25.625z M26.3149,22h-2.6084
			C23.8945,21.073,24,20.0618,24,19s-0.1055-2.073-0.2935-3h2.6084C26.7495,16.9108,27,17.9255,27,19S26.7495,21.0892,26.3149,22z"
			/>
	</g>
	<linearGradient id="SVGID_1_" gradientUnits="userSpaceOnUse" x1="3.3827" y1="4.1962" x2="32.6781" y2="39.1092">
		<stop  offset="0" style="stop-color:#FFFFFF;stop-opacity:0"/>
		<stop  offset="0.2264" style="stop-color:#FCFCFC;stop-opacity:0.0226"/>
		<stop  offset="0.3626" style="stop-color:#F4F4F4;stop-opacity:0.0363"/>
		<stop  offset="0.475" style="stop-color:#E6E6E6;stop-opacity:0.0475"/>
		<stop  offset="0.5744" style="stop-color:#D1D1D1;stop-opacity:0.0574"/>
		<stop  offset="0.6652" style="stop-color:#B7B7B7;stop-opacity:0.0665"/>
		<stop  offset="0.7498" style="stop-color:#979797;stop-opacity:0.075"/>
		<stop  offset="0.8297" style="stop-color:#707070;stop-opacity:0.083"/>
		<stop  offset="0.9057" style="stop-color:#444444;stop-opacity:0.0906"/>
		<stop  offset="0.9761" style="stop-color:#121212;stop-opacity:0.0976"/>
		<stop  offset="1" style="stop-color:#000000;stop-opacity:0.1"/>
	</linearGradient>
	<path fill="url(#SVGID_1_)" d="M34,10l-8-8H6v36h28V10z"/>
	<linearGradient id="SVGID_2_" gradientUnits="userSpaceOnUse" x1="29" y1="13.9063" x2="29" y2="11.0875">
		<stop  offset="0" style="stop-color:#828282;stop-opacity:0"/>
		<stop  offset="0.2812" style="stop-color:#7F7F7F;stop-opacity:0.0281"/>
		<stop  offset="0.4503" style="stop-color:#777777;stop-opacity:0.045"/>
		<stop  offset="0.5899" style="stop-color:#696969;stop-opacity:0.059"/>
		<stop  offset="0.7133" style="stop-color:#545454;stop-opacity:0.0713"/>
		<stop  offset="0.8259" style="stop-color:#3A3A3A;stop-opacity:0.0826"/>
		<stop  offset="0.9294" style="stop-color:#1A1A1A;stop-opacity:0.0929"/>
		<stop  offset="1" style="stop-color:#000000;stop-opacity:0.1"/>
	</linearGradient>
	<rect x="25" y="11" fill="url(#SVGID_2_)" width="8" height="3"/>
	<linearGradient id="SVGID_3_" gradientUnits="userSpaceOnUse" x1="23.7917" y1="9.7083" x2="28.7299" y2="4.7701">
		<stop  offset="0" style="stop-color:#FFFFFF;stop-opacity:0"/>
		<stop  offset="0.8537" style="stop-color:#FFFFFF;stop-opacity:0.2134"/>
		<stop  offset="1" style="stop-color:#FFFFFF;stop-opacity:0.25"/>
	</linearGradient>
	<polygon fill="url(#SVGID_3_)" points="26,2 6,2 6,3 25,3 25,11 32.9999,10.9999 33,25 34,25 34,10 	"/>
</g>
</svg>
